!!!OTL: Das mannstolle Maedchen
!!!OTL-incipit:'Bistu des goldschmids tochterlein,
!!!ARE: Europa, Mitteleuropa, Deutschland
!!!YOR: 6, S. 95
!!    1608 Handschrift (1603 - 08)
!!!SCT: Q0126E
!!!TXL: @@DE
!!!YEM: Copyright 1995, estate of Helmut Schaffrath.
**kern	**text
*ICvox	*
!! Mixed meters:  2/4; 3/4
*M2/4	*
*k[]	*
*a:	*
{8e	'Bis-
=1	=1
8aL	-tu
8bJ	des
8cc/L	goldt-
8aJ	-schmids
=2	=2
8bL	toch-
8bJ	-ter-
8a}	-lein,
{8cc	bin
=3	=3
8bL	ich
8aJ	des
8gL	baw-
8f#iJ	-ren
=4	=4
*M3/4	*
4e	sohn,
(8d#L	ja
8eJ	.
16f#L	.
16d#	.
8eJ)	.
=5	=5
*M2/4	*
4e	sohn
8r}	.
{8e	'Bis-
=6	=6
8aL	-tu
8bJ	des
8cc/L	goldt-
8aJ	-schmids
=7	=7
8bL	toch-
8bJ	-ter-
8a}	-lein,
{8cc	bin
=8	=8
8bL	ich
8aJ	des
8gL	baw-
8f#iJ	-ren
=9	=9
*M3/4	*
4e	sohn,
(8d#L	ja
8eJ	.
16f#L	.
16d#	.
8eJ)	.
=10	=10
*M2/4	*
4e}	sohn
{4a	so
=11	=11
8bL	ʒeuch
16cc	dei-
16bJ	-ne
8cc/L	be-
8aJ	-sten
=12	=12
8gL	klei-
8f#J	-der
4e}	an
=13	=13
{(4cc	und
4dd)	.
=14	=14
4ee	sprich,
(8eeL	du
16dd	.
16ccJ)	.
=15	=15
8bL	wilt
8aJ	ʒum
8aL	tan-
8g#J	-ze
=16	=16
4a}	gahn,
{8aL	vnd
16b	ʒeuch
16aJ	mit
=17	=17
8aL	mir
8g#J	da-
4a	-von,
=18	=18
(8aL	mit
8eJ)	.
8eL	mir
(16f	da-
16g#J)	.
=19	=19
4a;	-von.'
8r}	.
==	==
!!!Ag: Ballade, Werbung, Betrug
!! Pausen am Ende der zweiten, sechsten und letzten Zeile eingefuegt.
!!    Anhaengesel an mehreren Zeilen.
!!!ONB: ESAC (Essen Associative Code) Database: BALLADE
!!!AMT: irregular
!!!AIN: vox
!!!EED: Helmut Schaffrath
!!!EEV: 1.0
!!!RDF**kern: i = editorial accidental
!!!source: Deutsche Volkslieder mit ihren Melodien Balladen. Herausgegeben vom Deutschen Volksliedarchiv. Sechster Band. Freiburg/Breisgau 1976.
!!!page: 95
!!!ENC: Anna Maria Matuszewska
!!!EEV: 2025/03/06
*-	*-
